Adwaita++/actions/16/run-build-install-root.svg

<svg height="16" viewBox="0 0 16 16" width="16" xmlns="http://www.w3.org/2000/svg">
  <path d="m7 1v1.0859375c-.89056.15268-1.7351031.5045369-2.4707031 1.0292969l-.7714844-.7714844-1.4140625 1.4140625.7695312.7695313c-.5229499.73666-.8728275 1.5818562-1.0234374 2.4726562h-1.0898438v2h1.0859375c.15268.89056.5045369 1.735103 1.0292969 2.470703l-.7714844.771485 1.4140625 1.414062.7695313-.769531c.7366599.52295 1.5818562.872827 2.4726562 1.023437v1.089844h2v-1.085938c.89056-.15268 1.735103-.504536 2.470703-1.029296l.771485.771484 1.414062-1.414062-.769531-.769532c.52295-.73666.872827-1.581856 1.023437-2.472656h1.089844v-2h-1.085938c-.152679-.89056-.504536-1.7351031-1.029296-2.4707031l.771484-.7714844-1.414062-1.4140625-.769532.7695312c-.73666-.52295-1.581856-.8728274-2.472656-1.0234374v-1.0898438zm0 3h2v5h2l-3 3-3-3h2z" fill="#4285f4"/>
</svg>

<svg xmlns="http://www.w3.org/2000/svg" width="16" height="16" version="1.1" viewBox="0 0 16 16">
 <defs>
  <style id="current-color-scheme" type="text/css">
   .ColorScheme-Text { color:#474747; } .ColorScheme-Highlight { color:#4285f4; }
  </style>
 </defs>
 <path class="ColorScheme-Highlight" d="M 7,1 V 2.0859375 C 6.10944,2.2386175 5.2648969,2.5904744 4.5292969,3.1152344 L 3.7578125,2.34375 2.34375,3.7578125 3.1132812,4.5273438 C 2.5903313,5.2640038 2.2404537,6.1092 2.0898438,7 H 1 v 2 h 1.0859375 c 0.15268,0.89056 0.5045369,1.735103 1.0292969,2.470703 L 2.34375,12.242188 3.7578125,13.65625 4.5273438,12.886719 C 5.2640037,13.409669 6.1092,13.759546 7,13.910156 V 15 h 2 v -1.085938 c 0.89056,-0.15268 1.735103,-0.504536 2.470703,-1.029296 l 0.771485,0.771484 1.414062,-1.414062 -0.769531,-0.769532 C 13.409669,10.735996 13.759546,9.8908 13.910156,9 H 15 V 7 H 13.914062 C 13.761383,6.10944 13.409526,5.2648969 12.884766,4.5292969 L 13.65625,3.7578125 12.242188,2.34375 11.472656,3.1132812 C 10.735996,2.5903312 9.8908,2.2404538 9,2.0898438 V 1 Z m 0,3 h 2 v 5 h 2 L 8,12 5,9 h 2 z" style="fill:currentColor"/>
</svg>
